src/lib/packages/icons/src/assets/line/file-star.svg

<svg width="24" height="24" viewBox="0 0 24 24" fill="none" xmlns="http://www.w3.org/2000/svg">
<path d="M20.53 8.47L14.53 2.47C14.389 2.329 14.199 2.25 14 2.25H8C5.582 2.25 4.25 3.582 4.25 6V18C4.25 20.418 5.582 21.75 8 21.75H17C19.418 21.75 20.75 20.418 20.75 18V9C20.75 8.801 20.671 8.61 20.53 8.47ZM14.75 4.811L18.189 8.25H17C15.423 8.25 14.75 7.577 14.75 6V4.811ZM17 20.25H8C6.423 20.25 5.75 19.577 5.75 18V6C5.75 4.423 6.423 3.75 8 3.75H13.25V6C13.25 8.418 14.582 9.75 17 9.75H19.25V18C19.25 19.577 18.577 20.25 17 20.25ZM15.771 12.19L14.2119 11.968L13.543 10.64C13.344 10.245 12.943 10 12.499 10C12.055 10 11.6541 10.245 11.4551 10.641L10.7859 11.969L9.22705 12.191C8.79005 12.253 8.43698 12.551 8.30298 12.968C8.16898 13.383 8.28312 13.827 8.59912 14.128L9.71606 15.194L9.46289 16.642C9.38689 17.077 9.56099 17.509 9.91699 17.772C10.278 18.038 10.7499 18.076 11.1479 17.87L12.498 17.176L13.8491 17.87C14.0191 17.958 14.203 18.001 14.386 18.001C14.631 18.001 14.8731 17.923 15.0791 17.772C15.4351 17.509 15.61 17.077 15.533 16.642L15.28 15.193L16.397 14.127C16.712 13.826 16.8271 13.381 16.6931 12.967C16.5621 12.55 16.208 12.252 15.771 12.19ZM14.103 14.245C13.831 14.506 13.707 14.883 13.771 15.255L13.9409 16.229L13.0249 15.758C12.8609 15.673 12.68 15.631 12.501 15.631C12.322 15.631 12.142 15.673 11.978 15.757L11.061 16.228L11.2319 15.253C11.2949 14.882 11.1709 14.505 10.8979 14.244L10.1899 13.568L11.1841 13.426C11.5521 13.374 11.872 13.146 12.042 12.813L12.501 11.902L12.9619 12.816C13.1309 13.146 13.4501 13.375 13.8181 13.426L14.812 13.568L14.103 14.245Z" fill="currentColor"/>
</svg>

<svg xmlns="http://www.w3.org/2000/svg" width="24" height="24" fill="none"><path fill="currentColor" d="m20.53 8.47-6-6a.749.749 0 0 0-.53-.22H8C5.582 2.25 4.25 3.582 4.25 6v12c0 2.418 1.332 3.75 3.75 3.75h9c2.418 0 3.75-1.332 3.75-3.75V9a.747.747 0 0 0-.22-.53Zm-5.78-3.659 3.439 3.439H17c-1.577 0-2.25-.673-2.25-2.25V4.811ZM17 20.25H8c-1.577 0-2.25-.673-2.25-2.25V6c0-1.577.673-2.25 2.25-2.25h5.25V6c0 2.418 1.332 3.75 3.75 3.75h2.25V18c0 1.577-.673 2.25-2.25 2.25Zm-1.229-8.06-1.56-.222-.668-1.328c-.199-.395-.6-.64-1.044-.64-.444 0-.845.245-1.044.641l-.67 1.328-1.558.222c-.437.062-.79.36-.924.777-.134.415-.02.859.296 1.16l1.117 1.066-.253 1.448a1.15 1.15 0 0 0 .454 1.13 1.16 1.16 0 0 0 1.23.098l1.351-.694 1.351.694a1.166 1.166 0 0 0 1.23-.098c.356-.263.531-.695.454-1.13l-.253-1.449 1.117-1.066c.315-.301.43-.746.296-1.16a1.122 1.122 0 0 0-.922-.777Zm-1.668 2.055a1.131 1.131 0 0 0-.332 1.01l.17.974-.916-.471a1.14 1.14 0 0 0-1.047-.001l-.917.471.17-.975a1.131 1.131 0 0 0-.333-1.009l-.708-.676.994-.142c.368-.052.688-.28.858-.613l.459-.911.46.914c.17.33.49.559.857.61l.994.142-.709.677Z"/></svg>
